icon/groupbox-border.svg

<svg xmlns="http://www.w3.org/2000/svg" width="5" height="5" fill="gray"><path fill="#fff" fill-rule="evenodd" d="M0 0h5v5H0V2h2v1h1V2H0" clip-rule="evenodd"/><path fill-rule="evenodd" d="M0 0h4v4H0V1h1v2h2V1H0" clip-rule="evenodd"/></svg>

<svg width="5" height="5" viewBox="0 0 5 5" fill="grey" xmlns="http://www.w3.org/2000/svg">
<path fill-rule="evenodd" clip-rule="evenodd" d="M0 0H5V5H0V2H2V3H3V2H0" fill="white" />
<path fill-rule="evenodd" clip-rule="evenodd" d="M0 0H4V4H0V1H1V3H3V1H0" fill="#808080" />
</svg>
